assets/detail-icon.svg

<svg fill="none" height="41" viewBox="0 0 41 41" width="41" xmlns="http://www.w3.org/2000/svg"><rect fill="#131117" height="40" rx="20" width="40" x=".5" y=".5"/><path d="m20.4977 12.5c-2.8857 0-5.1964 1.3143-6.8786 2.8786-1.6714 1.55-2.7892 3.4071-3.3178 4.6821-.1179.2822-.1179.5964 0 .8786.5286 1.275 1.6464 3.1321 3.3178 4.6821 1.6822 1.5643 3.9929 2.8786 6.8786 2.8786s5.1964-1.3143 6.8786-2.8786c1.6714-1.5535 2.7893-3.4071 3.3214-4.6821.1179-.2822.1179-.5964 0-.8786-.5321-1.275-1.65-3.1321-3.3214-4.6821-1.6822-1.5643-3.9929-2.8786-6.8786-2.8786zm5.1429 8c0 2.8393-2.3036 5.1429-5.1429 5.1429s-5.1428-2.3036-5.1428-5.1429 2.3035-5.1429 5.1428-5.1429 5.1429 2.3036 5.1429 5.1429zm-5.1429-2.2857c0 1.2607-1.025 2.2857-2.2857 2.2857-.4107 0-.7964-.1071-1.1286-.3-.0071.1-.0143.1964-.0143.3 0 1.8929 1.5358 3.4286 3.4286 3.4286 1.8929 0 3.4286-1.5357 3.4286-3.4286s-1.5357-3.4286-3.4286-3.4286c-.1 0-.2.0036-.3.0143.1893.3322.3.7179.3 1.1286z" fill="#fff"/></svg>

<svg width="41" height="41" viewBox="0 0 41 41" fill="none" xmlns="http://www.w3.org/2000/svg">
<rect x="0.5" y="0.5" width="40" height="40" rx="20" fill="#131117"/>
<path d="M20.4977 12.5C17.612 12.5 15.3013 13.8143 13.6191 15.3786C11.9477 16.9286 10.8299 18.7857 10.3013 20.0607C10.1834 20.3429 10.1834 20.6571 10.3013 20.9393C10.8299 22.2143 11.9477 24.0714 13.6191 25.6214C15.3013 27.1857 17.612 28.5 20.4977 28.5C23.3834 28.5 25.6941 27.1857 27.3763 25.6214C29.0477 24.0679 30.1656 22.2143 30.6977 20.9393C30.8156 20.6571 30.8156 20.3429 30.6977 20.0607C30.1656 18.7857 29.0477 16.9286 27.3763 15.3786C25.6941 13.8143 23.3834 12.5 20.4977 12.5ZM25.6406 20.5C25.6406 23.3393 23.337 25.6429 20.4977 25.6429C17.6584 25.6429 15.3549 23.3393 15.3549 20.5C15.3549 17.6607 17.6584 15.3571 20.4977 15.3571C23.337 15.3571 25.6406 17.6607 25.6406 20.5ZM20.4977 18.2143C20.4977 19.475 19.4727 20.5 18.212 20.5C17.8013 20.5 17.4156 20.3929 17.0834 20.2C17.0763 20.3 17.0691 20.3964 17.0691 20.5C17.0691 22.3929 18.6049 23.9286 20.4977 23.9286C22.3906 23.9286 23.9263 22.3929 23.9263 20.5C23.9263 18.6071 22.3906 17.0714 20.4977 17.0714C20.3977 17.0714 20.2977 17.075 20.1977 17.0857C20.387 17.4179 20.4977 17.8036 20.4977 18.2143Z" fill="white"/>
</svg>
